exports/UN-population-projection-medium-variant_v6_850x600.svg

<svg xmlns="http://www.w3.org/2000/svg" version="1.1" style="background-color:#fff;-webkit-font-smoothing:antialiased" width="850" height="600" font-family="'Helvetica Neue',Helvetica,Arial,sans-serif" font-size="18" text-rendering="optimizeLegibility"><g class="ChartTab"><g class="HeaderView"><g opacity=".8" transform="matrix(.27 0 0 .27 778 15)"><a xmlns:xlink="http://www.w3.org/1999/xlink" xlink:href="https://ourworldindata.org" target="_blank"><g><path fill="#1B2543" d="M0 0h211.2v130.1H0z"/><path fill="#E63912" d="M0 112.2h211.2v17.9H0z"/><g><path fill="none" d="M1.2 12.3h210.2v99.2H1.2z"/><path fill="#FFF" d="M37.8 32.2c0 12.7-7.7 19.4-17.1 19.4-9.7 0-16.6-7.5-16.6-18.7 0-11.7 7.3-19.3 17.1-19.3 10.1.1 16.6 7.7 16.6 18.6zm-28.6.6c0 7.9 4.3 14.9 11.8 14.9 7.5 0 11.8-6.9 11.8-15.3 0-7.3-3.8-14.9-11.8-14.9-7.9 0-11.8 7.3-11.8 15.3zM62.7 43.8c0 2.7.1 5.1.2 7.2h-4.3l-.3-4.3h-.1c-1.3 2.1-4 4.9-8.8 4.9-4.2 0-9.1-2.3-9.1-11.6V24.6h4.8v14.6c0 5 1.5 8.4 5.9 8.4 3.2 0 5.5-2.2 6.3-4.4.3-.7.4-1.6.4-2.5V24.6h4.8v19.2zM67.3 32.8c0-3.1-.1-5.8-.2-8.2h4.2l.2 5.2h.2c1.2-3.5 4.1-5.8 7.3-5.8.5 0 .9.1 1.4.2v4.5c-.5-.1-1-.2-1.6-.2-3.4 0-5.8 2.6-6.5 6.2-.1.7-.2 1.4-.2 2.2V51h-4.8V32.8zM95.4 51L86 14.2h5l4.4 18.6c1.1 4.6 2.1 9.2 2.7 12.7h.1c.6-3.7 1.8-8 3-12.8l4.9-18.5h5l4.5 18.7c1 4.4 2 8.7 2.6 12.6h.1c.8-4 1.8-8.1 3-12.7l4.9-18.5h4.9L120.6 51h-5L111 31.9c-1.1-4.7-1.9-8.3-2.4-12h-.1c-.7 3.7-1.5 7.3-2.8 12L100.4 51h-5zM154.9 37.6c0 9.8-6.8 14-13.2 14-7.2 0-12.7-5.2-12.7-13.6 0-8.8 5.8-14 13.1-14 7.7 0 12.8 5.5 12.8 13.6zm-21 .3c0 5.8 3.3 10.1 8 10.1 4.6 0 8-4.3 8-10.3 0-4.5-2.2-10.1-7.9-10.1s-8.1 5.2-8.1 10.3zM158.2 32.8c0-3.1-.1-5.8-.2-8.2h4.2l.2 5.2h.2c1.2-3.5 4.1-5.8 7.3-5.8.5 0 .9.1 1.4.2v4.5c-.5-.1-1-.2-1.6-.2-3.4 0-5.8 2.6-6.5 6.2-.1.7-.2 1.4-.2 2.2V51h-4.8V32.8zM173.5 12.3h4.8V51h-4.8V12.3zM206.5 12.3v31.9c0 2.3.1 5 .2 6.8h-4.3l-.2-4.6h-.2c-1.5 2.9-4.7 5.2-9 5.2-6.4 0-11.3-5.4-11.3-13.4-.1-8.8 5.4-14.2 11.9-14.2 4 0 6.8 1.9 8 4h.1V12.3h4.8zm-4.8 23.1c0-.6-.1-1.4-.2-2a7 7 0 00-6.9-5.6c-5 0-7.9 4.4-7.9 10.2 0 5.3 2.6 9.8 7.8 9.8 3.2 0 6.2-2.1 7.1-5.7.2-.7.2-1.3.2-2.1v-4.6zM42.8 64c.1 1.6-1.1 2.9-3.1 2.9-1.7 0-2.9-1.3-2.9-2.9 0-1.7 1.3-3 3-3 1.9 0 3 1.3 3 3zm-5.4 33.8V71.4h4.8v26.4h-4.8zM47.5 78.6c0-2.7-.1-5-.2-7.1h4.3l.3 4.4h.1c1.3-2.5 4.4-5 8.8-5 3.7 0 9.4 2.2 9.4 11.2v15.8h-4.8V82.6c0-4.3-1.6-7.8-6.1-7.8-3.2 0-5.6 2.2-6.5 4.9-.2.6-.3 1.4-.3 2.2v15.9h-4.8V78.6zM84 61.6c2.9-.4 6.3-.8 10.1-.8 6.8 0 11.7 1.6 14.9 4.6 3.3 3 5.2 7.3 5.2 13.2 0 6-1.9 10.9-5.3 14.3-3.4 3.4-9.1 5.3-16.3 5.3-3.4 0-6.2-.2-8.6-.4V61.6zm4.8 32.5c1.2.2 3 .3 4.8.3 10.2 0 15.7-5.7 15.7-15.6.1-8.7-4.9-14.2-14.9-14.2-2.5 0-4.3.2-5.6.5v29zM132.1 97.8l-.4-3.3h-.2a9.79 9.79 0 01-8.1 3.9c-5.4 0-8.1-3.8-8.1-7.6 0-6.4 5.7-9.9 15.9-9.8v-.5c0-2.2-.6-6.1-6-6.1-2.5 0-5 .8-6.9 2l-1.1-3.2c2.2-1.4 5.4-2.3 8.7-2.3 8.1 0 10.1 5.5 10.1 10.8v9.9c0 2.3.1 4.5.4 6.3h-4.3zm-.7-13.4c-5.3-.1-11.2.8-11.2 5.9 0 3.1 2.1 4.6 4.5 4.6 3.4 0 5.6-2.2 6.4-4.4.2-.5.3-1 .3-1.5v-4.6zM146.6 63.9v7.6h6.9v3.7h-6.9v14.2c0 3.3.9 5.1 3.6 5.1 1.3 0 2.2-.2 2.8-.3l.2 3.6c-.9.4-2.4.7-4.3.7-2.2 0-4-.7-5.2-2-1.4-1.4-1.9-3.8-1.9-6.9V75.1h-4.1v-3.7h4.1v-6.3l4.8-1.2zM171.4 97.8l-.4-3.3h-.2a9.79 9.79 0 01-8.1 3.9c-5.4 0-8.1-3.8-8.1-7.6 0-6.4 5.7-9.9 15.9-9.8v-.5c0-2.2-.6-6.1-6-6.1-2.5 0-5 .8-6.9 2l-1.1-3.2c2.2-1.4 5.4-2.3 8.7-2.3 8.1 0 10.1 5.5 10.1 10.8v9.9c0 2.3.1 4.5.4 6.3h-4.3zm-.7-13.4c-5.3-.1-11.2.8-11.2 5.9 0 3.1 2.1 4.6 4.5 4.6 3.4 0 5.6-2.2 6.4-4.4.2-.5.3-1 .3-1.5v-4.6z"/></g></g></a></g><a href="https://ourworldindata.org/grapher/UN-population-projection-medium-variant" target="_blank"><text font-size="25.2" x="15" y="35.2" fill="#555"><tspan x="15" y="35.16">Population projection by the UN, World</tspan></text></a><text font-size="14.4" x="15" y="53.7" fill="#666"><tspan x="15" y="53.72">Shown is the total population since 1950 and the Medium Variant projections by the UN Population Division until</tspan><tspan x="15" y="69.56">2100.</tspan></text></g><g class="LineChart"><defs><clipPath id="a"><path d="M74.15 0h830v928.8h-830z"/></clipPath></defs><g class="AxisBoxView"><g class="HorizontalAxis" fill="#666" text-anchor="middle" font-size="16.2"><text x="84.2" y="556.5">1950</text><text x="127.9" y="556.5">1960</text><text x="215.3" y="556.5">1980</text><text x="302.7" y="556.5">2000</text><text x="390.1" y="556.5">2020</text><text x="477.5" y="556.5">2040</text><text x="565" y="556.5">2060</text><text x="652.4" y="556.5">2080</text><text x="739.8" y="556.5">2100</text></g><g class="VerticalAxis" fill="#666" dominant-baseline="middle" text-anchor="end" font-size="16.2"><text x="79.15" y="535.3">0</text><text x="79.15" y="456">2 billion</text><text x="79.15" y="376.8">4 billion</text><text x="79.15" y="297.5">6 billion</text><text x="79.15" y="218.3">8 billion</text><text x="79.15" y="139">10 billion</text></g><g class="AxisGridLines"><path stroke="#ccc" d="M84.15 535.3h655.64"/><path stroke="#ddd" stroke-dasharray="3,2" d="M84.15 456h655.64M84.15 376.8h655.64M84.15 297.5h655.64M84.15 218.3h655.64M84.15 139h655.64"/></g></g><g clip-path="url(#a)"><g class="HeightedLegend clickable"><g class="legendMark"><text font-size="13.5" x="744.8" y="96.1" fill="#ca2628"><tspan x="744.79" y="96.15">Projection</tspan></text></g></g><g class="Lines"><g class="key-World_0"><path stroke="#ca2628" stroke-linecap="round" d="M368 243l5-4 4-3 4-3 5-3 4-4 5-3 4-3 4-3 5-3 4-3 4-3 5-3 4-3 5-3 4-3 4-2 5-3 4-3 4-2 5-3 4-3 4-2 5-3 4-2 5-3 4-2 4-2 5-3 4-2 4-2 5-2 4-3 5-2 4-2 4-2 5-2 4-2 4-2 5-2 4-1 5-2 4-2 4-2 5-1 4-2 4-1 5-2 4-1 4-2 5-1 4-2 5-1 4-1 4-1 5-2 4-1 4-1 5-1 4-1 5-2 4-1 4-1 5-1 4-1 4-1h5l4-1 5-1 4-1 4-1 5-1h4l4-1 5-1 4-1h5l4-1h4l5-1 4-1h4l5-1h8l5-1" fill="none" stroke-width="1.5" stroke-dasharray="1,4"/></g><g class="key-World_1"><path stroke="#3360a9" stroke-linecap="round" d="M84 435l5-2 4-2 4-2 5-2 4-2 4-1 5-2 4-3 5-2 4-2 4-2 5-2 4-3 4-2 5-3 4-3 5-3 4-2 4-3 5-3 4-3 4-3 5-3 4-3 4-3 5-3 4-3 5-3 4-3 4-3 5-3 4-4 4-3 5-3 4-4 5-3 4-4 4-4 5-3 4-4 4-3 5-4 4-3 5-3 4-4 4-3 5-3 4-3 4-3 5-3 4-3 4-3 5-4 4-3 5-3 4-3 4-3 5-4 4-3 4-3 5-4 4-3 5-3 4-4 4-3" fill="none" stroke-width="1.5"/><g fill="#3360a9"><circle cx="84" cy="435" r="2"/><circle cx="89" cy="433" r="2"/><circle cx="93" cy="431" r="2"/><circle cx="97" cy="429" r="2"/><circle cx="102" cy="427" r="2"/><circle cx="106" cy="425" r="2"/><circle cx="110" cy="424" r="2"/><circle cx="115" cy="422" r="2"/><circle cx="119" cy="419" r="2"/><circle cx="124" cy="417" r="2"/><circle cx="128" cy="415" r="2"/><circle cx="132" cy="413" r="2"/><circle cx="137" cy="411" r="2"/><circle cx="141" cy="408" r="2"/><circle cx="145" cy="406" r="2"/><circle cx="150" cy="403" r="2"/><circle cx="154" cy="400" r="2"/><circle cx="159" cy="397" r="2"/><circle cx="163" cy="395" r="2"/><circle cx="167" cy="392" r="2"/><circle cx="172" cy="389" r="2"/><circle cx="176" cy="386" r="2"/><circle cx="180" cy="383" r="2"/><circle cx="185" cy="380" r="2"/><circle cx="189" cy="377" r="2"/><circle cx="193" cy="374" r="2"/><circle cx="198" cy="371" r="2"/><circle cx="202" cy="368" r="2"/><circle cx="207" cy="365" r="2"/><circle cx="211" cy="362" r="2"/><circle cx="215" cy="359" r="2"/><circle cx="220" cy="356" r="2"/><circle cx="224" cy="352" r="2"/><circle cx="228" cy="349" r="2"/><circle cx="233" cy="346" r="2"/><circle cx="237" cy="342" r="2"/><circle cx="242" cy="339" r="2"/><circle cx="246" cy="335" r="2"/><circle cx="250" cy="331" r="2"/><circle cx="255" cy="328" r="2"/><circle cx="259" cy="324" r="2"/><circle cx="263" cy="321" r="2"/><circle cx="268" cy="317" r="2"/><circle cx="272" cy="314" r="2"/><circle cx="277" cy="311" r="2"/><circle cx="281" cy="307" r="2"/><circle cx="285" cy="304" r="2"/><circle cx="290" cy="301" r="2"/><circle cx="294" cy="298" r="2"/><circle cx="298" cy="295" r="2"/><circle cx="303" cy="292" r="2"/><circle cx="307" cy="289" r="2"/><circle cx="311" cy="286" r="2"/><circle cx="316" cy="282" r="2"/><circle cx="320" cy="279" r="2"/><circle cx="325" cy="276" r="2"/><circle cx="329" cy="273" r="2"/><circle cx="333" cy="270" r="2"/><circle cx="338" cy="266" r="2"/><circle cx="342" cy="263" r="2"/><circle cx="346" cy="260" r="2"/><circle cx="351" cy="256" r="2"/><circle cx="355" cy="253" r="2"/><circle cx="360" cy="250" r="2"/><circle cx="364" cy="246" r="2"/><circle cx="368" cy="243" r="2"/></g></g></g></g></g><g class="SourcesFooter" fill="#777"><g class="clickable" fill="#777"><text font-size="12.6" x="15" y="581.6"><tspan x="15" y="581.58">Source: UN Population Division (2017 Revision)</tspan></text></g><text font-size="12.6" x="504.9" y="581.6"><tspan x="504.88" y="581.58"><a target="_blank" href="https://ourworldindata.org/future-population-growth/" fill="#777">OurWorldInData.org/future-population-growth/</a> • <a class="cclogo" href="http://creativecommons.org/licenses/by-sa/4.0/deed.en_US" target="_blank" fill="#777">CC BY-SA</a></tspan></text></g></g></svg>

<svg xmlns="http://www.w3.org/2000/svg" version="1.1" style="font-family: 'Helvetica Neue', Helvetica, Arial, sans-serif; font-size: 18px; background-color: white; text-rendering: optimizeLegibility; -webkit-font-smoothing: antialiased;" width="850" height="600"><g class="ChartTab"><g class="HeaderView"><g opacity="0.8" transform="translate(778, 15) scale(0.27)"><a xmlns:xlink="http://www.w3.org/1999/xlink" xlink:href="https://ourworldindata.org" target="_blank"><g><rect x="0" y="0" fill="#1B2543" width="211.2" height="130.1"/><rect x="0" y="112.2" fill="#E63912" width="211.2" height="17.9"/><g><rect x="1.2" y="12.3" fill="none" width="210.2" height="99.2"/><path fill="#FFFFFF" d="M37.8,32.2c0,12.7-7.7,19.4-17.1,19.4c-9.7,0-16.6-7.5-16.6-18.7c0-11.7,7.3-19.3,17.1-19.3 C31.3,13.7,37.8,21.3,37.8,32.2z M9.2,32.8c0,7.9,4.3,14.9,11.8,14.9c7.5,0,11.8-6.9,11.8-15.3c0-7.3-3.8-14.9-11.8-14.9 C13.1,17.5,9.2,24.8,9.2,32.8z"/><path fill="#FFFFFF" d="M62.7,43.8c0,2.7,0.1,5.1,0.2,7.2h-4.3l-0.3-4.3h-0.1c-1.3,2.1-4,4.9-8.8,4.9c-4.2,0-9.1-2.3-9.1-11.6 V24.6h4.8v14.6c0,5,1.5,8.4,5.9,8.4c3.2,0,5.5-2.2,6.3-4.4c0.3-0.7,0.4-1.6,0.4-2.5V24.6h4.8V43.8z"/><path fill="#FFFFFF" d="M67.3,32.8c0-3.1-0.1-5.8-0.2-8.2h4.2l0.2,5.2h0.2c1.2-3.5,4.1-5.8,7.3-5.8c0.5,0,0.9,0.1,1.4,0.2v4.5 c-0.5-0.1-1-0.2-1.6-0.2c-3.4,0-5.8,2.6-6.5,6.2c-0.1,0.7-0.2,1.4-0.2,2.2V51h-4.8V32.8z"/><path fill="#FFFFFF" d="M95.4,51l-9.4-36.8h5l4.4,18.6c1.1,4.6,2.1,9.2,2.7,12.7h0.1c0.6-3.7,1.8-8,3-12.8l4.9-18.5h5l4.5,18.7 c1,4.4,2,8.7,2.6,12.6h0.1c0.8-4,1.8-8.1,3-12.7l4.9-18.5h4.9L120.6,51h-5L111,31.9c-1.1-4.7-1.9-8.3-2.4-12h-0.1 c-0.7,3.7-1.5,7.3-2.8,12L100.4,51H95.4z"/><path fill="#FFFFFF" d="M154.9,37.6c0,9.8-6.8,14-13.2,14c-7.2,0-12.7-5.2-12.7-13.6c0-8.8,5.8-14,13.1-14 C149.8,24,154.9,29.5,154.9,37.6z M133.9,37.9c0,5.8,3.3,10.1,8,10.1c4.6,0,8-4.3,8-10.3c0-4.5-2.2-10.1-7.9-10.1 C136.3,27.6,133.9,32.8,133.9,37.9z"/><path fill="#FFFFFF" d="M158.2,32.8c0-3.1-0.1-5.8-0.2-8.2h4.2l0.2,5.2h0.2c1.2-3.5,4.1-5.8,7.3-5.8c0.5,0,0.9,0.1,1.4,0.2v4.5 c-0.5-0.1-1-0.2-1.6-0.2c-3.4,0-5.8,2.6-6.5,6.2c-0.1,0.7-0.2,1.4-0.2,2.2V51h-4.8V32.8z"/><path fill="#FFFFFF" d="M173.5,12.3h4.8V51h-4.8V12.3z"/><path fill="#FFFFFF" d="M206.5,12.3v31.9c0,2.3,0.1,5,0.2,6.8h-4.3l-0.2-4.6H202c-1.5,2.9-4.7,5.2-9,5.2 c-6.4,0-11.3-5.4-11.3-13.4c-0.1-8.8,5.4-14.2,11.9-14.2c4,0,6.8,1.9,8,4h0.1V12.3H206.5z M201.7,35.4c0-0.6-0.1-1.4-0.2-2 c-0.7-3.1-3.3-5.6-6.9-5.6c-5,0-7.9,4.4-7.9,10.2c0,5.3,2.6,9.8,7.8,9.8c3.2,0,6.2-2.1,7.1-5.7c0.2-0.7,0.2-1.3,0.2-2.1V35.4z"/><path fill="#FFFFFF" d="M42.8,64c0.1,1.6-1.1,2.9-3.1,2.9c-1.7,0-2.9-1.3-2.9-2.9c0-1.7,1.3-3,3-3C41.7,61,42.8,62.3,42.8,64z M37.4,97.8V71.4h4.8v26.4H37.4z"/><path fill="#FFFFFF" d="M47.5,78.6c0-2.7-0.1-5-0.2-7.1h4.3l0.3,4.4h0.1c1.3-2.5,4.4-5,8.8-5c3.7,0,9.4,2.2,9.4,11.2v15.8h-4.8 V82.6c0-4.3-1.6-7.8-6.1-7.8c-3.2,0-5.6,2.2-6.5,4.9c-0.2,0.6-0.3,1.4-0.3,2.2v15.9h-4.8V78.6z"/><path fill="#FFFFFF" d="M84,61.6c2.9-0.4,6.3-0.8,10.1-0.8c6.8,0,11.7,1.6,14.9,4.6c3.3,3,5.2,7.3,5.2,13.2c0,6-1.9,10.9-5.3,14.3 c-3.4,3.4-9.1,5.3-16.3,5.3c-3.4,0-6.2-0.2-8.6-0.4V61.6z M88.8,94.1c1.2,0.2,3,0.3,4.8,0.3c10.2,0,15.7-5.7,15.7-15.6 c0.1-8.7-4.9-14.2-14.9-14.2c-2.5,0-4.3,0.2-5.6,0.5V94.1z"/><path fill="#FFFFFF" d="M132.1,97.8l-0.4-3.3h-0.2c-1.5,2.1-4.3,3.9-8.1,3.9c-5.4,0-8.1-3.8-8.1-7.6c0-6.4,5.7-9.9,15.9-9.8v-0.5 c0-2.2-0.6-6.1-6-6.1c-2.5,0-5,0.8-6.9,2l-1.1-3.2c2.2-1.4,5.4-2.3,8.7-2.3c8.1,0,10.1,5.5,10.1,10.8v9.9c0,2.3,0.1,4.5,0.4,6.3 H132.1z M131.4,84.4c-5.3-0.1-11.2,0.8-11.2,5.9c0,3.1,2.1,4.6,4.5,4.6c3.4,0,5.6-2.2,6.4-4.4c0.2-0.5,0.3-1,0.3-1.5V84.4z"/><path fill="#FFFFFF" d="M146.6,63.9v7.6h6.9v3.7h-6.9v14.2c0,3.3,0.9,5.1,3.6,5.1c1.3,0,2.2-0.2,2.8-0.3l0.2,3.6 c-0.9,0.4-2.4,0.7-4.3,0.7c-2.2,0-4-0.7-5.2-2c-1.4-1.4-1.9-3.8-1.9-6.9V75.1h-4.1v-3.7h4.1v-6.3L146.6,63.9z"/><path fill="#FFFFFF" d="M171.4,97.8l-0.4-3.3h-0.2c-1.5,2.1-4.3,3.9-8.1,3.9c-5.4,0-8.1-3.8-8.1-7.6c0-6.4,5.7-9.9,15.9-9.8v-0.5 c0-2.2-0.6-6.1-6-6.1c-2.5,0-5,0.8-6.9,2l-1.1-3.2c2.2-1.4,5.4-2.3,8.7-2.3c8.1,0,10.1,5.5,10.1,10.8v9.9c0,2.3,0.1,4.5,0.4,6.3 H171.4z M170.7,84.4c-5.3-0.1-11.2,0.8-11.2,5.9c0,3.1,2.1,4.6,4.5,4.6c3.4,0,5.6-2.2,6.4-4.4c0.2-0.5,0.3-1,0.3-1.5V84.4z"/></g></g></a></g><a href="https://ourworldindata.org/grapher/UN-population-projection-medium-variant" target="_blank"><text font-size="25.20" x="15.0" y="35.2" fill="#555"><tspan x="15" y="35.160000000000004">Population projection by the UN, World</tspan></text></a><text font-size="14.40" x="15.0" y="53.7" fill="#666"><tspan x="15" y="53.72">Shown is the total population since 1950 and the Medium Variant projections by the UN Population Division until</tspan><tspan x="15" y="69.56">2100.</tspan></text></g><g class="LineChart"><defs><clipPath id="boundsClip-15"><rect x="74.152" y="0" width="830" height="928.8"></rect></clipPath></defs><g class="AxisBoxView"><g class="HorizontalAxis"><text x="84.2" y="556.5" fill="#666" text-anchor="middle" font-size="16.2">1950</text><text x="127.9" y="556.5" fill="#666" text-anchor="middle" font-size="16.2">1960</text><text x="215.3" y="556.5" fill="#666" text-anchor="middle" font-size="16.2">1980</text><text x="302.7" y="556.5" fill="#666" text-anchor="middle" font-size="16.2">2000</text><text x="390.1" y="556.5" fill="#666" text-anchor="middle" font-size="16.2">2020</text><text x="477.5" y="556.5" fill="#666" text-anchor="middle" font-size="16.2">2040</text><text x="565" y="556.5" fill="#666" text-anchor="middle" font-size="16.2">2060</text><text x="652.4" y="556.5" fill="#666" text-anchor="middle" font-size="16.2">2080</text><text x="739.8" y="556.5" fill="#666" text-anchor="middle" font-size="16.2">2100</text></g><g class="VerticalAxis"><text x="79.15" y="535.3" fill="#666" dominant-baseline="middle" text-anchor="end" font-size="16.2">0</text><text x="79.15" y="456" fill="#666" dominant-baseline="middle" text-anchor="end" font-size="16.2">2 billion</text><text x="79.15" y="376.8" fill="#666" dominant-baseline="middle" text-anchor="end" font-size="16.2">4 billion</text><text x="79.15" y="297.5" fill="#666" dominant-baseline="middle" text-anchor="end" font-size="16.2">6 billion</text><text x="79.15" y="218.3" fill="#666" dominant-baseline="middle" text-anchor="end" font-size="16.2">8 billion</text><text x="79.15" y="139" fill="#666" dominant-baseline="middle" text-anchor="end" font-size="16.2">10 billion</text></g><g class="AxisGridLines"><line x1="84.15" y1="535.3" x2="739.79" y2="535.3" stroke="#ccc"></line><line x1="84.15" y1="456" x2="739.79" y2="456" stroke="#ddd" stroke-dasharray="3,2"></line><line x1="84.15" y1="376.8" x2="739.79" y2="376.8" stroke="#ddd" stroke-dasharray="3,2"></line><line x1="84.15" y1="297.5" x2="739.79" y2="297.5" stroke="#ddd" stroke-dasharray="3,2"></line><line x1="84.15" y1="218.3" x2="739.79" y2="218.3" stroke="#ddd" stroke-dasharray="3,2"></line><line x1="84.15" y1="139" x2="739.79" y2="139" stroke="#ddd" stroke-dasharray="3,2"></line></g></g><g clip-path="url(#boundsClip-15)"><g class="HeightedLegend clickable"><g class="legendMark"><rect x="739.79" y="85.35" width="95.21000000000001" height="13.5" fill="#fff" opacity="0"></rect><text font-size="13.50" x="744.8" y="96.1" fill="#ca2628"><tspan x="744.79" y="96.14999999999999">Projection</tspan></text></g></g><g class="Lines"><rect x="84" y="92" width="656" height="443" fill="rgba(255,255,255,0)" opacity="0"></rect><g class="key-World_0"><path stroke="#ca2628" stroke-linecap="round" d="M368 243L373 239L377 236L381 233L386 230L390 226L395 223L399 220L403 217L408 214L412 211L416 208L421 205L425 202L430 199L434 196L438 194L443 191L447 188L451 186L456 183L460 180L464 178L469 175L473 173L478 170L482 168L486 166L491 163L495 161L499 159L504 157L508 154L513 152L517 150L521 148L526 146L530 144L534 142L539 140L543 139L548 137L552 135L556 133L561 132L565 130L569 129L574 127L578 126L582 124L587 123L591 121L596 120L600 119L604 118L609 116L613 115L617 114L622 113L626 112L631 110L635 109L639 108L644 107L648 106L652 105L657 105L661 104L666 103L670 102L674 101L679 100L683 100L687 99L692 98L696 97L701 97L705 96L709 96L714 95L718 94L722 94L727 93L731 93L735 93L740 92" fill="none" stroke-width="1.5" stroke-dasharray="1,4"></path></g><g class="key-World_1"><path stroke="#3360a9" stroke-linecap="round" d="M84 435L89 433L93 431L97 429L102 427L106 425L110 424L115 422L119 419L124 417L128 415L132 413L137 411L141 408L145 406L150 403L154 400L159 397L163 395L167 392L172 389L176 386L180 383L185 380L189 377L193 374L198 371L202 368L207 365L211 362L215 359L220 356L224 352L228 349L233 346L237 342L242 339L246 335L250 331L255 328L259 324L263 321L268 317L272 314L277 311L281 307L285 304L290 301L294 298L298 295L303 292L307 289L311 286L316 282L320 279L325 276L329 273L333 270L338 266L342 263L346 260L351 256L355 253L360 250L364 246L368 243" fill="none" stroke-width="1.5"></path><g fill="#3360a9"><circle cx="84" cy="435" r="2"></circle><circle cx="89" cy="433" r="2"></circle><circle cx="93" cy="431" r="2"></circle><circle cx="97" cy="429" r="2"></circle><circle cx="102" cy="427" r="2"></circle><circle cx="106" cy="425" r="2"></circle><circle cx="110" cy="424" r="2"></circle><circle cx="115" cy="422" r="2"></circle><circle cx="119" cy="419" r="2"></circle><circle cx="124" cy="417" r="2"></circle><circle cx="128" cy="415" r="2"></circle><circle cx="132" cy="413" r="2"></circle><circle cx="137" cy="411" r="2"></circle><circle cx="141" cy="408" r="2"></circle><circle cx="145" cy="406" r="2"></circle><circle cx="150" cy="403" r="2"></circle><circle cx="154" cy="400" r="2"></circle><circle cx="159" cy="397" r="2"></circle><circle cx="163" cy="395" r="2"></circle><circle cx="167" cy="392" r="2"></circle><circle cx="172" cy="389" r="2"></circle><circle cx="176" cy="386" r="2"></circle><circle cx="180" cy="383" r="2"></circle><circle cx="185" cy="380" r="2"></circle><circle cx="189" cy="377" r="2"></circle><circle cx="193" cy="374" r="2"></circle><circle cx="198" cy="371" r="2"></circle><circle cx="202" cy="368" r="2"></circle><circle cx="207" cy="365" r="2"></circle><circle cx="211" cy="362" r="2"></circle><circle cx="215" cy="359" r="2"></circle><circle cx="220" cy="356" r="2"></circle><circle cx="224" cy="352" r="2"></circle><circle cx="228" cy="349" r="2"></circle><circle cx="233" cy="346" r="2"></circle><circle cx="237" cy="342" r="2"></circle><circle cx="242" cy="339" r="2"></circle><circle cx="246" cy="335" r="2"></circle><circle cx="250" cy="331" r="2"></circle><circle cx="255" cy="328" r="2"></circle><circle cx="259" cy="324" r="2"></circle><circle cx="263" cy="321" r="2"></circle><circle cx="268" cy="317" r="2"></circle><circle cx="272" cy="314" r="2"></circle><circle cx="277" cy="311" r="2"></circle><circle cx="281" cy="307" r="2"></circle><circle cx="285" cy="304" r="2"></circle><circle cx="290" cy="301" r="2"></circle><circle cx="294" cy="298" r="2"></circle><circle cx="298" cy="295" r="2"></circle><circle cx="303" cy="292" r="2"></circle><circle cx="307" cy="289" r="2"></circle><circle cx="311" cy="286" r="2"></circle><circle cx="316" cy="282" r="2"></circle><circle cx="320" cy="279" r="2"></circle><circle cx="325" cy="276" r="2"></circle><circle cx="329" cy="273" r="2"></circle><circle cx="333" cy="270" r="2"></circle><circle cx="338" cy="266" r="2"></circle><circle cx="342" cy="263" r="2"></circle><circle cx="346" cy="260" r="2"></circle><circle cx="351" cy="256" r="2"></circle><circle cx="355" cy="253" r="2"></circle><circle cx="360" cy="250" r="2"></circle><circle cx="364" cy="246" r="2"></circle><circle cx="368" cy="243" r="2"></circle></g></g></g></g></g><g style="fill: #777;" class="SourcesFooter"><g style="fill: #777;" class="clickable"><text font-size="12.60" x="15.0" y="581.6"><tspan x="15" y="581.58">Source: UN Population Division (2017 Revision)</tspan></text></g><text font-size="12.60" x="504.9" y="581.6"><tspan x="504.88" y="581.58"><a target='_blank' style='fill: #777;' href='https://ourworldindata.org/future-population-growth/'>OurWorldInData.org/future-population-growth/</a> • <a style="fill: #777;" class="cclogo" href="http://creativecommons.org/licenses/by-sa/4.0/deed.en_US" target="_blank">CC BY-SA</a></tspan></text></g></g></svg>
